modules/coreui-icons-free/icons/vertical-align-top1.svg

<!-- Generated by IcoMoon.io -->
<svg version="1.1" xmlns="http://www.w3.org/2000/svg" width="24" height="24" viewBox="0 0 24 24">
<title>vertical-align-top1</title>
<path d="M17.25 23.25h6v-19.5h-6zM18.75 5.25h3v16.5h-3z"></path>
<path d="M9 16.125h6v-12.375h-6zM10.5 5.25h3v9.375h-3z"></path>
<path d="M0.75 23.25h6v-19.5h-6zM2.25 5.25h3v16.5h-3z"></path>
<path d="M0.75 0.75h22.5v1.5h-22.5v-1.5z"></path>
</svg>

<svg xmlns="http://www.w3.org/2000/svg" width="24" height="24" viewBox="0 0 24 24"><path d="M17.25 23.25h6V3.75h-6zm1.5-18h3v16.5h-3zM9 16.125h6V3.75H9zM10.5 5.25h3v9.375h-3zM.75 23.25h6V3.75h-6zm1.5-18h3v16.5h-3zM.75.75h22.5v1.5H.75V.75z"/></svg>
